public/assets/stats/book1.svg

<svg xmlns="http://www.w3.org/2000/svg" width="947" height="371" fill="none"><g filter="url(#a)"><path fill="#F3F4F5" d="m74.007 298.737 159.39 17.444 5.25-48.599-38.734-65.912-149.401-18.045c24.058 43.028 29.513 68.221 23.495 115.112"/><path fill="#0DAEF1" d="M704.909 50.058 863.918 66.14 199.913 201.67 60.319 181.624zM82.058 303.782l136.743 16.365a8.04 8.04 0 0 0 6.662-2.319c4.767-4.804 1.828-12.99-4.906-13.664L83.523 290.451a6.7 6.7 0 0 0-2.009.102c-7.458 1.523-7.014 12.324.544 13.229"/><path fill="#0DAEF1" d="m61.554 190.945 150.091 11.758a9.1 9.1 0 0 0 8.62-4.571c3.413-5.994-.824-13.458-7.72-13.601l-150.518-3.133a4.8 4.8 0 0 0-1.081.101c-5.409 1.134-4.902 9.015.608 9.446"/><path fill="url(#b)" d="M863.679 65.763 198.857 201.458c24.705 45.829 29.644 71.931 24.174 118.434l655.846-133.863c5.78-1.18 10.966-4.484 13.011-10.017 3.523-9.53 7.114-27.485.406-54.406-10.574-42.432-28.615-55.843-28.615-55.843"/><path stroke="#EBEBEA" stroke-width="1.982" d="m70.317 204.476 129.449 9.981M73.883 221.95l129.45 9.981M77.45 239.423l129.449 9.982M81.016 256.897l129.45 9.982M84.583 274.371l129.45 9.982"/><path fill="#225C90" d="m441.506 228.743-.842-4.127 3.686-.752.842 4.127zm-5.77-28.271-.846-4.145 3.686-.752.846 4.145zm7.19 24.877q-2.646.54-4.921.012t-3.972-2q-1.683-1.494-2.578-3.809l3.532-1.328q.99 2.15 2.992 3.137 1.998.97 4.414.477 2.398-.489 3.664-1.942 1.282-1.455.919-3.237-.26-1.269-1.197-1.905-.92-.638-2.761-.833l-6.335-.617q-5.625-.56-6.587-5.269-.453-2.222.27-4.079.741-1.86 2.497-3.155 1.757-1.296 4.349-1.825 2.494-.472 4.597.018a8.5 8.5 0 0 1 3.728 1.884q1.626 1.396 2.595 3.622l-3.62 1.437a5.64 5.64 0 0 0-1.53-2.186 5.44 5.44 0 0 0-2.307-1.219q-1.3-.34-2.785-.056-1.401.249-2.414.952-1 .681-1.48 1.661a3.08 3.08 0 0 0-.25 2.017q.238 1.164 1.303 1.792 1.065.627 3.124.813l4.95.404q3.405.297 5.161 1.611 1.756 1.313 2.299 3.976.475 2.328-.332 4.312-.793 1.962-2.673 3.375-1.883 1.395-4.652 1.96m17.325-4.088-4.356-21.34-4.185 3.886-.839-4.109 4.196-3.833 3.757-.767 5.183 25.397zm18.692-3.264q-2.487.508-4.61-.088-2.11-.616-3.567-2.174-1.44-1.562-1.919-3.907-.446-2.187.206-4.213.653-2.025 2.468-3.48l.189 1.285q-1.828-.674-3.016-1.994-1.173-1.34-1.555-3.209-.443-2.17.238-3.962.682-1.793 2.269-3.017 1.605-1.227 3.898-1.695 2.292-.468 4.232.036t3.27 1.886q1.329 1.383 1.772 3.551.381 1.87-.142 3.538-.522 1.668-2.025 3.041l-.304-1.224q2.211.577 3.627 2.199 1.41 1.604 1.857 3.791.479 2.346-.251 4.35t-2.447 3.402q-1.72 1.38-4.19 1.884m-.716-3.509q2.045-.419 3.089-1.788 1.04-1.388.6-3.54-.44-2.151-1.939-3.021-1.486-.89-3.55-.47-2.064.422-3.099 1.827-1.022 1.385-.583 3.536t1.939 3.021q1.497.852 3.543.435m-2.52-12.346q1.746-.357 2.645-1.44.914-1.106.55-2.886-.363-1.782-1.637-2.44-1.259-.68-3.005-.324t-2.656 1.479q-.913 1.105-.55 2.887.364 1.78 1.637 2.439 1.27.642 3.016.285m16.199 12.658-5.166-25.4 3.739-.763 3.168 15.52 5.606-10.697 4.691-.958-5.957 11.137 10.656 7.745-5.009 1.022-9.843-7.543 1.872 9.17zm21.404-27.461-.73-3.58 3.686-.753.73 3.581zm4.525 22.169-3.887-19.047 3.686-.753 3.887 19.047zm22.351-4.562-1.912-9.365a14 14 0 0 0-.658-2.236 7 7 0 0 0-1.152-2.042 4.2 4.2 0 0 0-1.795-1.324q-1.06-.427-2.577-.117a5.3 5.3 0 0 0-1.801.717 3.97 3.97 0 0 0-1.34 1.357q-.505.856-.652 2.117-.13 1.257.217 2.95l-2.469-.396q-.53-2.592.037-4.766.563-2.19 2.153-3.672t4.165-2.008q1.975-.404 3.445-.042t2.511 1.233a7.7 7.7 0 0 1 1.745 1.977q.69 1.127 1.086 2.259t.576 2.013l2.16 10.582zm-13.386 2.732-3.888-19.047 3.298-.673 1.123 5.502.441-.09 2.765 13.545zm28.78-5.874-5.184-25.397 10.265-2.095q.37-.075.924-.152a7.4 7.4 0 0 1 1.062-.106q2.185-.097 3.823.726a6.96 6.96 0 0 1 2.706 2.369q1.051 1.55 1.469 3.595.42 2.063.061 3.9a6.95 6.95 0 0 1-1.562 3.24q-1.184 1.4-3.232 2.166-.48.172-1.036.322-.54.147-.893.219l-6.578 1.342 1.861 9.118zm1.112-13.363 6.437-1.313q.354-.072.769-.194.433-.125.804-.293 1.074-.495 1.618-1.34a4.36 4.36 0 0 0 .65-1.86 6.026 6.026 0 0 0-.76-3.721 4.2 4.2 0 0 0-1.322-1.439q-.836-.582-2.018-.617a4.7 4.7 0 0 0-.858.028 10 10 0 0 0-.783.124l-6.438 1.313zm21.002 8.849-3.887-19.047 3.28-.67.943 4.621-.581-.506q.166-.988.575-1.863a5.3 5.3 0 0 1 1.046-1.536q.615-.677 1.44-1.139a7.2 7.2 0 0 1 1.762-.727 7.2 7.2 0 0 1 1.817-.279l.705 3.457q-.985-.057-2.11.284a4.64 4.64 0 0 0-1.933 1.147 4.8 4.8 0 0 0-1.141 1.703 6.1 6.1 0 0 0-.363 2.003 9.8 9.8 0 0 0 .207 2.181l1.962 9.612zm9.469-25.025-.731-3.58 3.686-.753.731 3.581zm4.525 22.169-3.888-19.047 3.686-.753 3.888 19.048zm7.218-1.473-.119-.582 7.716-17.374-9.824 2.005-.673-3.298 15.679-3.2.122.599-7.701 17.353 10.264-2.095.673 3.298zm27.68-5.099q-2.839.579-5.243-.216-2.39-.816-4.042-2.794-1.639-1.998-2.24-4.944-.637-3.121.059-5.652.714-2.534 2.557-4.214t4.629-2.25q2.91-.593 5.233.347 2.32.923 3.833 3.204 1.53 2.278 2.017 5.743l-3.686.752-.274-1.34q-.711-3.309-2.27-4.644-1.541-1.338-4.046-.828-2.769.565-3.805 2.596-1.038 2.031-.364 5.328.64 3.14 2.387 4.584 1.742 1.426 4.37.89 1.728-.353 2.822-1.385 1.108-1.053 1.515-2.66l3.849.408q-.59 2.784-2.559 4.656-1.973 1.854-4.742 2.419m-8.629-7.626-.587-2.875 13.598-2.775.587 2.874zm28.508 3.55q-3.474.71-5.974-.379t-3.563-3.773l3.656-1.353q.654 1.41 2.101 2.015 1.46.584 3.365.195 1.729-.353 2.554-1.257.844-.906.592-2.141-.147-.723-.59-1.092-.429-.39-1.605-.573t-3.539-.325q-2.58-.134-4.175-.562-1.58-.45-2.395-1.293-.801-.866-1.085-2.259-.353-1.728.301-3.203.655-1.474 2.169-2.518 1.532-1.048 3.771-1.505 2.187-.446 4.038-.108 1.851.339 3.168 1.393 1.314 1.036 1.871 2.686l-3.633 1.458q-.476-1.336-1.731-1.906-1.255-.572-3.016-.285-1.69.272-2.6 1.119-.915.83-.692 1.923.13.635.608.996.495.359 1.725.53 1.229.173 3.584.279 2.524.128 4.09.598 1.562.453 2.374 1.371.827.897 1.125 2.361.576 2.822-1.16 4.848-1.717 2.022-5.334 2.76"/></g><defs><linearGradient id="b" x1="865.679" x2="210.683" y1="127.119" y2="260.808" gradientUnits="userSpaceOnUse"><stop stop-color="#A5D8ED"/><stop offset="1" stop-color="#B6FFF6"/></linearGradient><filter id="a" width="945.554" height="370.147" x=".512" y=".058" color-interpolation-filters="sRGB" filterUnits="userSpaceOnUse"><feFlood flood-opacity="0" result="BackgroundImageFix"/><feColorMatrix in="SourceAlpha" result="hardAlpha" values="0 0 0 0 0 0 0 0 0 0 0 0 0 0 0 0 0 0 127 0"/><feOffset/><feGaussianBlur stdDeviation="25"/><feComposite in2="hardAlpha" operator="out"/><feColorMatrix values="0 0 0 0 0.713726 0 0 0 0 1 0 0 0 0 0.964706 0 0 0 0.55 0"/><feBlend in2="BackgroundImageFix" result="effect1_dropShadow_516_566"/><feBlend in="SourceGraphic" in2="effect1_dropShadow_516_566" result="shape"/></filter></defs></svg>

<svg width="947" height="371" viewBox="0 0 947 371" fill="none" xmlns="http://www.w3.org/2000/svg">
    <g filter="url(#filter0_d_516_566)">
    <path d="M74.0073 298.737L233.397 316.181L238.647 267.582L199.913 201.67L50.512 183.625C74.57 226.653 80.0249 251.846 74.0073 298.737Z" fill="#F3F4F5"/>
    <path d="M704.909 50.0576L863.918 66.1407L199.913 201.67L60.319 181.624L704.909 50.0576Z" fill="#0DAEF1"/>
    <path d="M82.0584 303.782L218.801 320.147C221.26 320.442 223.718 319.586 225.463 317.828C230.23 313.024 227.291 304.838 220.557 304.164L83.523 290.451C82.8521 290.384 82.1749 290.418 81.5143 290.553C74.0561 292.076 74.5004 302.877 82.0584 303.782Z" fill="#0DAEF1"/>
    <path d="M61.5536 190.945L211.645 202.703C215.161 202.979 218.52 201.198 220.265 198.132C223.678 192.138 219.441 184.674 212.545 184.531L62.0265 181.398C61.6635 181.391 61.3009 181.424 60.9455 181.499C55.5371 182.633 56.0444 190.514 61.5536 190.945Z" fill="#0DAEF1"/>
    <path d="M863.679 65.763L198.857 201.458C223.562 247.287 228.501 273.389 223.031 319.892L878.877 186.029C884.657 184.849 889.843 181.545 891.888 176.012C895.411 166.482 899.002 148.527 892.294 121.606C881.72 79.1737 863.679 65.763 863.679 65.763Z" fill="url(#paint0_linear_516_566)"/>
    <line x1="70.3165" y1="204.476" x2="199.766" y2="214.457" stroke="#EBEBEA" stroke-width="1.98157"/>
    <line x1="73.8831" y1="221.95" x2="203.333" y2="231.931" stroke="#EBEBEA" stroke-width="1.98157"/>
    <line x1="77.4496" y1="239.423" x2="206.899" y2="249.405" stroke="#EBEBEA" stroke-width="1.98157"/>
    <line x1="81.0162" y1="256.897" x2="210.466" y2="266.879" stroke="#EBEBEA" stroke-width="1.98157"/>
    <line x1="84.5827" y1="274.371" x2="214.033" y2="284.353" stroke="#EBEBEA" stroke-width="1.98157"/>
    <path d="M441.506 228.743L440.664 224.616L444.35 223.864L445.192 227.991L441.506 228.743ZM435.736 200.472L434.89 196.327L438.576 195.575L439.422 199.72L435.736 200.472ZM442.926 225.349C441.162 225.709 439.522 225.713 438.005 225.361C436.488 225.009 435.164 224.343 434.033 223.361C432.911 222.365 432.052 221.095 431.455 219.552L434.987 218.224C435.647 219.657 436.644 220.703 437.979 221.361C439.311 222.008 440.782 222.167 442.393 221.838C443.992 221.512 445.213 220.865 446.057 219.896C446.912 218.926 447.218 217.847 446.976 216.659C446.803 215.813 446.404 215.178 445.779 214.754C445.165 214.328 444.245 214.051 443.018 213.921L436.683 213.304C432.933 212.93 430.737 211.174 430.096 208.035C429.794 206.553 429.884 205.194 430.366 203.956C430.86 202.716 431.693 201.665 432.863 200.801C434.034 199.937 435.484 199.329 437.212 198.976C438.875 198.662 440.407 198.667 441.809 198.994C443.222 199.318 444.465 199.946 445.537 200.878C446.621 201.808 447.486 203.016 448.132 204.5L444.512 205.937C444.163 205.066 443.652 204.337 442.982 203.751C442.323 203.163 441.554 202.757 440.675 202.532C439.808 202.305 438.88 202.286 437.89 202.476C436.956 202.642 436.151 202.959 435.476 203.428C434.809 203.882 434.316 204.436 433.996 205.089C433.685 205.728 433.602 206.4 433.746 207.106C433.905 207.882 434.339 208.479 435.049 208.898C435.759 209.316 436.8 209.587 438.173 209.711L443.123 210.115C445.393 210.313 447.113 210.85 448.284 211.726C449.455 212.601 450.221 213.927 450.583 215.702C450.9 217.254 450.789 218.692 450.251 220.014C449.722 221.322 448.831 222.447 447.578 223.389C446.322 224.319 444.772 224.972 442.926 225.349ZM460.251 221.261L455.895 199.921L451.71 203.807L450.871 199.698L455.067 195.865L458.824 195.098L464.007 220.495L460.251 221.261ZM478.943 217.997C477.285 218.336 475.748 218.306 474.333 217.909C472.926 217.498 471.737 216.774 470.766 215.735C469.806 214.694 469.167 213.391 468.847 211.828C468.55 210.37 468.618 208.966 469.053 207.615C469.488 206.265 470.311 205.105 471.521 204.135L471.71 205.42C470.491 204.97 469.486 204.306 468.694 203.426C467.912 202.533 467.393 201.463 467.139 200.217C466.844 198.77 466.923 197.45 467.377 196.255C467.832 195.06 468.588 194.054 469.646 193.238C470.716 192.42 472.015 191.855 473.544 191.543C475.072 191.231 476.483 191.243 477.776 191.579C479.07 191.915 480.159 192.544 481.046 193.465C481.932 194.387 482.522 195.57 482.818 197.016C483.072 198.263 483.025 199.442 482.676 200.554C482.328 201.666 481.653 202.68 480.651 203.595L480.347 202.371C481.821 202.756 483.03 203.489 483.974 204.57C484.914 205.639 485.534 206.903 485.831 208.361C486.15 209.925 486.067 211.375 485.58 212.711C485.094 214.047 484.278 215.181 483.133 216.113C481.986 217.033 480.589 217.661 478.943 217.997ZM478.227 214.488C479.591 214.209 480.62 213.613 481.316 212.7C482.009 211.774 482.209 210.595 481.916 209.16C481.623 207.726 480.977 206.719 479.977 206.139C478.986 205.545 477.803 205.389 476.427 205.669C475.051 205.95 474.018 206.559 473.328 207.496C472.647 208.419 472.452 209.598 472.745 211.032C473.038 212.466 473.684 213.473 474.684 214.053C475.682 214.621 476.863 214.766 478.227 214.488ZM475.707 202.142C476.871 201.904 477.753 201.424 478.352 200.702C478.961 199.965 479.145 199.003 478.902 197.816C478.66 196.628 478.114 195.815 477.265 195.376C476.426 194.922 475.424 194.815 474.26 195.052C473.096 195.29 472.211 195.783 471.604 196.531C470.995 197.268 470.812 198.23 471.054 199.418C471.297 200.605 471.842 201.418 472.691 201.857C473.538 202.285 474.543 202.38 475.707 202.142ZM491.906 214.8L486.74 189.4L490.479 188.637L493.647 204.157L499.253 193.46L503.944 192.502L497.987 203.639L508.643 211.384L503.634 212.406L493.791 204.863L495.663 214.033L491.906 214.8ZM513.31 187.339L512.58 183.759L516.266 183.006L516.996 186.587L513.31 187.339ZM517.835 209.508L513.948 190.461L517.634 189.708L521.521 208.755L517.835 209.508ZM540.186 204.946L538.274 195.581C538.123 194.84 537.904 194.095 537.616 193.345C537.338 192.582 536.954 191.901 536.464 191.303C535.986 190.702 535.388 190.261 534.669 189.979C533.962 189.694 533.103 189.655 532.092 189.862C531.433 189.996 530.833 190.235 530.291 190.579C529.746 190.91 529.299 191.363 528.951 191.936C528.614 192.507 528.397 193.212 528.299 194.053C528.213 194.891 528.285 195.875 528.516 197.003L526.047 196.607C525.694 194.879 525.706 193.29 526.084 191.841C526.46 190.381 527.177 189.156 528.237 188.169C529.297 187.181 530.685 186.511 532.402 186.161C533.719 185.892 534.867 185.878 535.847 186.119C536.827 186.36 537.664 186.771 538.358 187.352C539.062 187.919 539.644 188.578 540.103 189.329C540.563 190.08 540.924 190.833 541.189 191.588C541.453 192.342 541.645 193.013 541.765 193.601L543.925 204.183L540.186 204.946ZM526.8 207.678L522.912 188.631L526.21 187.958L527.333 193.46L527.774 193.37L530.539 206.915L526.8 207.678ZM555.58 201.804L550.396 176.407L560.661 174.312C560.908 174.262 561.216 174.211 561.585 174.16C561.952 174.098 562.306 174.062 562.647 174.054C564.104 173.989 565.378 174.231 566.47 174.78C567.573 175.327 568.475 176.116 569.176 177.149C569.877 178.182 570.366 179.38 570.645 180.744C570.925 182.119 570.946 183.42 570.706 184.644C570.466 185.869 569.945 186.949 569.144 187.884C568.355 188.817 567.277 189.539 565.912 190.05C565.592 190.164 565.247 190.272 564.876 190.372C564.516 190.47 564.218 190.543 563.983 190.591L557.405 191.933L559.266 201.051L555.58 201.804ZM556.692 188.441L563.129 187.128C563.365 187.08 563.621 187.015 563.898 186.934C564.187 186.85 564.455 186.753 564.702 186.641C565.418 186.311 565.958 185.864 566.32 185.301C566.681 184.725 566.897 184.105 566.97 183.441C567.042 182.777 567.015 182.134 566.888 181.51C566.761 180.887 566.535 180.29 566.21 179.72C565.883 179.137 565.442 178.658 564.888 178.281C564.331 177.893 563.658 177.687 562.87 177.664C562.597 177.647 562.311 177.656 562.012 177.692C561.725 177.727 561.464 177.768 561.229 177.816L554.791 179.129L556.692 188.441ZM577.694 197.29L573.807 178.243L577.087 177.573L578.03 182.194L577.449 181.688C577.56 181.029 577.751 180.408 578.024 179.825C578.295 179.231 578.644 178.719 579.07 178.289C579.48 177.838 579.96 177.458 580.51 177.15C581.068 176.828 581.656 176.586 582.272 176.423C582.885 176.249 583.491 176.156 584.089 176.144L584.794 179.601C584.137 179.563 583.434 179.658 582.684 179.885C581.946 180.109 581.302 180.491 580.751 181.032C580.23 181.543 579.85 182.11 579.61 182.735C579.382 183.357 579.261 184.025 579.247 184.738C579.231 185.439 579.3 186.166 579.454 186.919L581.416 196.531L577.694 197.29ZM587.163 172.265L586.432 168.685L590.118 167.932L590.849 171.513L587.163 172.265ZM591.688 194.434L587.8 175.387L591.486 174.634L595.374 193.682L591.688 194.434ZM598.906 192.961L598.787 192.379L606.503 175.005L596.679 177.01L596.006 173.712L611.685 170.512L611.807 171.111L604.106 188.464L614.37 186.369L615.043 189.667L598.906 192.961ZM626.586 187.862C624.693 188.248 622.946 188.176 621.343 187.646C619.75 187.102 618.403 186.17 617.301 184.852C616.208 183.52 615.462 181.872 615.061 179.908C614.636 177.827 614.656 175.943 615.12 174.256C615.596 172.567 616.448 171.162 617.677 170.042C618.905 168.921 620.449 168.172 622.306 167.792C624.246 167.397 625.991 167.512 627.539 168.139C629.086 168.754 630.363 169.822 631.372 171.343C632.392 172.862 633.064 174.776 633.389 177.086L629.703 177.838L629.429 176.498C628.955 174.292 628.198 172.744 627.159 171.854C626.131 170.962 624.783 170.686 623.113 171.026C621.267 171.403 619.999 172.268 619.308 173.622C618.616 174.976 618.495 176.752 618.944 178.95C619.371 181.043 620.167 182.571 621.331 183.534C622.492 184.485 623.949 184.781 625.701 184.424C626.853 184.188 627.794 183.727 628.523 183.039C629.262 182.337 629.766 181.45 630.038 180.379L633.887 180.787C633.494 182.643 632.641 184.195 631.328 185.443C630.013 186.679 628.432 187.485 626.586 187.862ZM617.957 180.236L617.37 177.361L630.968 174.586L631.555 177.46L617.957 180.236ZM646.465 183.786C644.149 184.259 642.158 184.133 640.491 183.407C638.824 182.682 637.637 181.424 636.928 179.634L640.584 178.281C641.02 179.221 641.721 179.892 642.685 180.296C643.658 180.685 644.78 180.75 646.05 180.491C647.202 180.255 648.054 179.837 648.604 179.234C649.167 178.63 649.364 177.916 649.196 177.093C649.098 176.611 648.901 176.247 648.606 176.001C648.32 175.741 647.785 175.55 647.001 175.428C646.217 175.307 645.037 175.198 643.462 175.103C641.742 175.014 640.35 174.826 639.287 174.541C638.234 174.241 637.436 173.81 636.892 173.248C636.358 172.671 635.996 171.918 635.807 170.989C635.572 169.837 635.672 168.769 636.108 167.786C636.545 166.803 637.267 165.964 638.277 165.268C639.298 164.569 640.555 164.068 642.048 163.763C643.506 163.466 644.852 163.43 646.086 163.655C647.32 163.881 648.376 164.345 649.254 165.048C650.13 165.739 650.754 166.634 651.125 167.734L647.492 169.192C647.175 168.301 646.598 167.666 645.761 167.286C644.924 166.905 643.919 166.81 642.745 167.001C641.619 167.182 640.752 167.555 640.145 168.12C639.535 168.673 639.304 169.314 639.453 170.043C639.54 170.466 639.742 170.798 640.061 171.039C640.391 171.278 640.966 171.455 641.786 171.569C642.605 171.684 643.8 171.777 645.37 171.848C647.053 171.933 648.416 172.133 649.46 172.446C650.501 172.748 651.293 173.205 651.834 173.817C652.385 174.415 652.76 175.202 652.959 176.178C653.343 178.059 652.956 179.675 651.799 181.026C650.654 182.374 648.876 183.294 646.465 183.786Z" fill="#225C90"/>
    </g>
    <defs>
    <filter id="filter0_d_516_566" x="0.512024" y="0.0576172" width="945.554" height="370.147" filterUnits="userSpaceOnUse" color-interpolation-filters="sRGB">
    <feFlood flood-opacity="0" result="BackgroundImageFix"/>
    <feColorMatrix in="SourceAlpha" type="matrix" values="0 0 0 0 0 0 0 0 0 0 0 0 0 0 0 0 0 0 127 0" result="hardAlpha"/>
    <feOffset/>
    <feGaussianBlur stdDeviation="25"/>
    <feComposite in2="hardAlpha" operator="out"/>
    <feColorMatrix type="matrix" values="0 0 0 0 0.713726 0 0 0 0 1 0 0 0 0 0.964706 0 0 0 0.55 0"/>
    <feBlend mode="normal" in2="BackgroundImageFix" result="effect1_dropShadow_516_566"/>
    <feBlend mode="normal" in="SourceGraphic" in2="effect1_dropShadow_516_566" result="shape"/>
    </filter>
    <linearGradient id="paint0_linear_516_566" x1="865.679" y1="127.119" x2="210.683" y2="260.808" gradientUnits="userSpaceOnUse">
    <stop stop-color="#A5D8ED"/>
    <stop offset="1" stop-color="#B6FFF6"/>
    </linearGradient>
    </defs>
    </svg>
